flags/other/rebel_alliance.svg

<svg width="512" height="512" viewBox="0 0 512 512" fill="none" xmlns="http://www.w3.org/2000/svg">
<rect width="512" height="512" fill="var(--flag-palette-white, #eeeeee)"/>
<path d="M64.0926 251.296C66.4544 188.68 98.1872 130.928 156.197 92.7657C156.368 92.83 157.871 92.2827 157.185 93.582C152.59 97.8427 69.975 195.434 146.019 272.465C146.019 272.465 185.974 310.876 216.956 274.43C216.956 274.43 247.528 234.851 216.569 174.854C216.569 174.854 208.733 155.264 180.499 143.112L203.237 118.025C203.237 118.025 222.451 126.269 237.33 148.629C237.33 148.629 238.124 125.087 220.09 100.001L255.343 60.0039L290.242 99.6251C290.242 99.6251 274.194 122.362 273.012 149.005C273.012 149.005 283.973 130.971 307.504 118.026L329.832 143.113C329.832 143.113 308.362 150.188 293.978 174.599C281.611 197.216 272.09 245.587 294.535 275.258C294.535 275.258 319.654 310.877 363.84 273.156C363.84 273.156 445.081 200.362 355.509 95.1182C355.509 95.1182 350.614 90.792 356.109 93.1431C395.7 121.967 443.105 159.978 448 254.841C446.068 369.876 369.033 451.995 256.546 451.995C146.407 451.994 60.7873 360.083 64.0926 251.296Z" fill="var(--flag-palette-dark-red, #a2001d)"/>
</svg>

<svg xmlns="http://www.w3.org/2000/svg" width="512" height="512" fill="none"><path fill="var(--flag-palette-white, #eeeeee)" d="M0 0h512v512H0z"/><path fill="var(--flag-palette-dark-red, #a2001d)" d="M64 251.3c2.5-62.6 34.2-120.4 92.2-158.5.2 0 1.7-.5 1 .8-4.6 4.2-87.2 101.8-11.2 178.9 0 0 40 38.4 71 2 0 0 30.5-39.6-.4-99.6 0 0-7.9-19.6-36.1-31.8l22.7-25s19.3 8.2 34.1 30.5c0 0 .8-23.5-17.2-48.6l35.2-40 35 39.6S274.1 122.4 273 149c0 0 11-18 34.5-31l22.3 25.1s-21.4 7-35.8 31.5c-12.4 22.6-22 71 .5 100.7 0 0 25.2 35.6 69.3-2.1 0 0 81.3-72.8-8.3-178 0 0-4.9-4.4.6-2 39.6 28.8 87 66.8 91.9 161.6-2 115-79 197.2-191.5 197.2-110 0-195.7-92-192.4-200.7"/></svg>
